Newaita-dark/apps/48/emerald-theme-manager-icon.svg

<svg height="48pt" viewBox="0 0 48 48" width="48pt" xmlns="http://www.w3.org/2000/svg" xmlns:xlink="http://www.w3.org/1999/xlink"><linearGradient id="a"><stop offset="0" stop-opacity=".313725"/><stop offset=".222222" stop-opacity=".27451"/><stop offset="1" stop-opacity="0"/></linearGradient><radialGradient id="b" cx="450.908936" cy="189.579361" gradientTransform="matrix(.0000002 -.117199 -.158218 -.00000015 53.437532 95.448122)" gradientUnits="userSpaceOnUse" r="21.166656" xlink:href="#a"/><radialGradient id="c" cx="450.908936" cy="189.579361" gradientTransform="matrix(-.0000002 .117199 .158218 .00000015 -5.807986 -11.236095)" gradientUnits="userSpaceOnUse" r="21.166656" xlink:href="#a"/><radialGradient id="d" cx="450.908936" cy="189.579361" gradientTransform="matrix(-.0000002 -.117199 .158218 -.00000015 -5.807986 95.448122)" gradientUnits="userSpaceOnUse" r="21.166656" xlink:href="#a"/><radialGradient id="e" cx="450.908936" cy="189.579361" gradientTransform="matrix(.0000002 .117199 -.158218 .00000015 53.437529 -11.236096)" gradientUnits="userSpaceOnUse" r="21.166656" xlink:href="#a"/><linearGradient id="f"><stop offset="0" stop-color="#7cb342"/><stop offset="1" stop-color="#8bc34a"/></linearGradient><linearGradient id="g" gradientUnits="userSpaceOnUse" x1="13.89195900005" x2="13.89195900005" xlink:href="#f" y1="20.22067903125" y2="42.0508995"/><linearGradient id="h" gradientUnits="userSpaceOnUse" x1="33.737656" x2="33.737656" xlink:href="#f" y1="20.22071629293" y2="42.05096580616"/><linearGradient id="i"><stop offset="0" stop-color="#9ccc65"/><stop offset="1" stop-color="#8bc34a"/></linearGradient><linearGradient id="j" gradientUnits="userSpaceOnUse" x1="21.83021999995" x2="21.83021999995" xlink:href="#i" y1="20.22068012501" y2="42.0509005"/><linearGradient id="k" gradientUnits="userSpaceOnUse" x1="23.814816" x2="23.814816" xlink:href="#i" y1="20.22071629293" y2="4.34417266504"/><linearGradient id="l" gradientUnits="userSpaceOnUse" x1="13.89195900005" x2="13.89195900005" y1="20.22068003125" y2="4.3441570001"><stop offset="0" stop-color="#aed581"/><stop offset="1" stop-color="#c5e1a5"/></linearGradient><linearGradient id="m" gradientUnits="userSpaceOnUse" x1="21.830248" x2="21.830248" xlink:href="#i" y1="4.34417306195" y2="20.22071629293"/><path d="m23.816406 42.105469h2.976563v-1.984375h-2.976563zm0 0" fill="url(#b)"/><path d="m23.816406 42.105469h-2.976562v1.984375h2.976562zm0 0" fill="url(#c)"/><path d="m23.816406 42.105469h-2.976562v-1.984375h2.976562zm0 0" fill="url(#d)"/><path d="m23.816406 42.105469h2.976563v1.984375h-2.976563zm0 0" fill="url(#e)"/><path d="m3.980469 20.21875c0 .476562.167969.949219.503906 1.324219l17.863281 19.84375c.34375.382812.800782.597656 1.273438.644531-.300782-.058594-.578125-.25-.71875-.582031l-8.929688-20.835938c-.054687-.132812-.082031-.261719-.082031-.394531zm0 0" fill="url(#g)"/><path d="m33.738281 20.21875c0 .132812-.027343.261719-.082031.394531l-8.929688 20.835938c-.140624.332031-.417968.523437-.71875.582031.472657-.046875.929688-.261719 1.273438-.644531l17.863281-19.84375c.335938-.375.507813-.847657.507813-1.324219zm0 0" fill="url(#h)"/><path d="m13.890625 20.21875c0 .132812.027344.261719.082031.394531l8.929688 20.835938c.34375.800781 1.480468.800781 1.824218 0l8.929688-20.835938c.054688-.132812.082031-.261719.082031-.394531zm0 0" fill="url(#j)"/><path d="m23.945312 4.355469c.296876.039062.5625.210937.71875.46875l8.933594 14.886719c.097656.164062.140625.339843.140625.507812h9.914063c0-.398438-.121094-.800781-.371094-1.144531l-9.921875-13.894531c-.371094-.519532-.96875-.824219-1.605469-.824219zm0 0" fill="url(#k)"/><path d="m15.867188 4.355469c-.636719 0-1.238282.304687-1.609376.824219l-9.921874 13.894531c-.246094.34375-.367188.746093-.367188 1.144531h9.921875c0-.167969.042969-.34375.144531-.507812l8.929688-14.886719c.15625-.257813.421875-.429688.71875-.46875zm0 0" fill="url(#l)"/><path d="m23.84375 4.34375c-.359375-.011719-.695312.175781-.878906.480469l-8.929688 14.886719c-.101562.164062-.144531.339843-.144531.507812h19.847656c0-.167969-.042969-.34375-.140625-.507812l-8.933594-14.886719c-.171874-.289063-.480468-.46875-.820312-.480469zm0 0" fill="url(#m)"/><path d="m23.804688 4.34375c-.042969 0-.082032.003906-.121094.011719h-7.816406c-.636719 0-1.238282.304687-1.609376.824219l-9.921874 13.894531c-.246094.34375-.367188.746093-.367188 1.144531h.011719c0 .078125.003906.15625.011719.230469.054687-.253907.164062-.5.320312-.722657l9.925781-13.890624c.371094-.519532.96875-.828126 1.605469-.828126h7.816406c.054688-.007812.109375-.011718.160156-.007812.035157 0 .070313.003906.101563.007812h7.808594c.636719 0 1.234375.308594 1.605469.828126l9.925781 13.890624c.191406.269532.308593.574219.347656.886719.027344-.128906.042969-.261719.042969-.394531 0-.398438-.121094-.800781-.371094-1.144531l-9.921875-13.894531c-.371094-.519532-.96875-.824219-1.605469-.824219h-7.808594c-.03125-.007813-.066406-.007813-.101562-.011719-.011719 0-.027344 0-.039062 0zm0 0" fill="#fff" fill-opacity=".392157"/><path d="m4.003906 19.84375c-.023437.125-.035156.25-.035156.375h.011719c0 .476562.167969.949219.503906 1.324219l17.863281 19.84375c.34375.382812.800782.597656 1.273438.644531.128906.023438.261718.023438.386718 0 .472657-.046875.929688-.261719 1.273438-.644531l17.863281-19.84375c.335938-.375.507813-.847657.507813-1.324219 0-.113281-.011719-.230469-.03125-.34375-.0625.351562-.222656.691406-.476563.972656l-17.863281 19.847656c-.34375.382813-.800781.597657-1.273438.644532-.125.023437-.257812.023437-.386718 0-.472656-.046875-.929688-.261719-1.273438-.644532l-17.863281-19.847656c-.257813-.289062-.421875-.640625-.480469-1.003906zm0 0" fill-opacity=".235294"/><path d="m15.867188 4.210938c-.683594.003906-1.324219.332031-1.722657.886718l-9.921875 13.894532c-.265625.367187-.394531.800781-.394531 1.230468 0 .015625.003906.035156.011719.050782.011718.492187.195312.976562.542968 1.363281l17.859376 19.84375c.367187.40625.851562.636719 1.351562.6875 0 .003906.003906.003906.003906.003906.074219.011719.144532.019531.21875.019531.070313 0 .144532-.007812.214844-.019531 0 0 .003906 0 .003906-.003906.5-.050781.988282-.28125 1.351563-.6875l17.863281-19.84375c.359375-.402344.542969-.90625.542969-1.414063 0-.429687-.132813-.863281-.394531-1.230468l-9.921876-13.894532c-.398437-.554687-1.039062-.882812-1.722656-.886718h-7.808594c-.058593.003906-.109374.039062-.128906.09375-.023437-.054688-.074218-.089844-.132812-.09375zm7.949218.191406c.015625.050781.058594.082031.109375.089844.257813.035156.484375.183593.621094.40625l8.929687 14.882812c.058594.097656.09375.199219.109376.296875h-19.542969c.015625-.097656.054687-.199219.109375-.296875l8.933594-14.882812c.132812-.222657.363281-.371094.617187-.40625.050781-.007813.09375-.039063.113281-.089844zm-7.949218.09375h7.191406c-.082032.074218-.15625.160156-.214844.257812l-8.929688 14.882813c-.085937.144531-.136718.292969-.15625.441406h-9.636718c.023437-.324219.128906-.644531.328125-.921875l9.925781-13.894531c.34375-.480469.898438-.765625 1.492188-.765625zm8.703124 0h7.183594c.589844 0 1.148438.285156 1.492188.765625l9.921875 13.894531c.199219.277344.304687.597656.332031.921875h-9.628906c-.019532-.148437-.070313-.296875-.15625-.441406l-8.929688-14.882813c-.058594-.097656-.132812-.183594-.214844-.257812zm-20.445312 15.863281h9.636719c.007812.089844.03125.179687.066406.265625.003906.015625.007813.027344.015625.042969l8.929688 20.835937c.015624.039063.035156.074219.050781.105469-.132813-.085937-.261719-.191406-.371094-.316406l-17.863281-19.84375c-.277344-.3125-.433594-.695313-.464844-1.089844zm9.921875 0h19.535156c-.007812.066406-.027343.132813-.054687.195313l-8.929688 20.839843c-.007812.015625-.015625.03125-.023437.046875 0 .003906 0 .003906-.003907.007813-.007812.015625-.015624.03125-.023437.042969 0 .003906-.003906.007812-.003906.007812-.007813.015625-.015625.027344-.027344.042969-.007813.015625-.019531.027343-.027344.039062-.003906.003907-.003906.003907-.003906.007813-.011719.011718-.019531.023437-.03125.035156-.007813.011719-.019531.023438-.027344.03125-.011719.011719-.023437.023438-.035156.03125-.003906.007812-.007813.011719-.015625.015625-.007812.007813-.019531.015625-.027344.027344-.003906 0-.007812.003906-.011718.003906-.011719.011719-.023438.019531-.035157.027344-.097656.066406-.207031.109375-.320312.132812h-.003907c-.054687.011719-.109374.015625-.160156.015625-.054687 0-.109375-.003906-.160156-.015625-.003906 0-.007812 0-.007812 0-.113282-.023437-.222657-.066406-.320313-.132812-.011719-.007813-.023437-.015625-.035156-.027344-.003907 0-.003907-.003906-.007813-.003906-.011718-.011719-.023437-.019531-.035156-.027344 0-.003906-.003906-.007813-.007812-.011719-.011719-.011718-.027344-.023437-.039063-.035156-.007813-.011719-.019531-.019531-.027344-.03125-.011719-.011719-.019531-.023438-.03125-.035156 0-.003906 0-.003906-.003906-.003906-.007813-.015626-.019531-.027344-.027344-.042969-.011719-.015625-.019531-.027344-.027343-.042969 0-.003906-.003907-.003906-.003907-.007812-.007812-.011719-.015625-.027344-.023437-.042969 0-.003907-.003906-.003907-.003906-.007813-.007813-.015625-.015626-.03125-.023438-.046875l-8.929688-20.839843c-.027343-.0625-.042968-.128907-.054687-.195313zm19.824219 0h9.632812c-.03125.394531-.183594.777344-.464844 1.089844l-17.859374 19.84375c-.113282.125-.242188.230469-.375.316406.019531-.03125.035156-.066406.050781-.105469l8.929687-20.835937c.007813-.015625.011719-.027344.015625-.042969.035157-.085938.058594-.175781.070313-.265625zm0 0" fill="#212121"/></svg>

<?xml version="1.0" encoding="UTF-8"?>
<svg xmlns="http://www.w3.org/2000/svg" xmlns:xlink="http://www.w3.org/1999/xlink" width="48pt" height="48pt" viewBox="0 0 48 48" version="1.1">
<defs>
<radialGradient id="radial0" gradientUnits="userSpaceOnUse" cx="450.908936" cy="189.579361" fx="450.908936" fy="189.579361" r="21.166656" gradientTransform="matrix(0.000000195942,-0.117199,-0.158218,-0.000000152308,53.437532,95.448122)">
<stop offset="0" style="stop-color:rgb(0%,0%,0%);stop-opacity:0.313725;"/>
<stop offset="0.222222" style="stop-color:rgb(0%,0%,0%);stop-opacity:0.27451;"/>
<stop offset="1" style="stop-color:rgb(0%,0%,0%);stop-opacity:0;"/>
</radialGradient>
<radialGradient id="radial1" gradientUnits="userSpaceOnUse" cx="450.908936" cy="189.579361" fx="450.908936" fy="189.579361" r="21.166656" gradientTransform="matrix(-0.000000195942,0.117199,0.158218,0.000000152308,-5.807986,-11.236095)">
<stop offset="0" style="stop-color:rgb(0%,0%,0%);stop-opacity:0.313725;"/>
<stop offset="0.222222" style="stop-color:rgb(0%,0%,0%);stop-opacity:0.27451;"/>
<stop offset="1" style="stop-color:rgb(0%,0%,0%);stop-opacity:0;"/>
</radialGradient>
<radialGradient id="radial2" gradientUnits="userSpaceOnUse" cx="450.908936" cy="189.579361" fx="450.908936" fy="189.579361" r="21.166656" gradientTransform="matrix(-0.000000195942,-0.117199,0.158218,-0.000000152308,-5.807986,95.448122)">
<stop offset="0" style="stop-color:rgb(0%,0%,0%);stop-opacity:0.313725;"/>
<stop offset="0.222222" style="stop-color:rgb(0%,0%,0%);stop-opacity:0.27451;"/>
<stop offset="1" style="stop-color:rgb(0%,0%,0%);stop-opacity:0;"/>
</radialGradient>
<radialGradient id="radial3" gradientUnits="userSpaceOnUse" cx="450.908936" cy="189.579361" fx="450.908936" fy="189.579361" r="21.166656" gradientTransform="matrix(0.000000195942,0.117199,-0.158218,0.000000152308,53.437529,-11.236096)">
<stop offset="0" style="stop-color:rgb(0%,0%,0%);stop-opacity:0.313725;"/>
<stop offset="0.222222" style="stop-color:rgb(0%,0%,0%);stop-opacity:0.27451;"/>
<stop offset="1" style="stop-color:rgb(0%,0%,0%);stop-opacity:0;"/>
</radialGradient>
<linearGradient id="linear0" gradientUnits="userSpaceOnUse" x1="148.166672" y1="0.666667" x2="148.166672" y2="233.5" gradientTransform="matrix(0.093759,0,0,0.093759,0,20.158173)">
<stop offset="0" style="stop-color:rgb(48.627451%,70.196078%,25.882353%);stop-opacity:1;"/>
<stop offset="1" style="stop-color:rgb(54.509804%,76.470588%,29.019608%);stop-opacity:1;"/>
</linearGradient>
<linearGradient id="linear1" gradientUnits="userSpaceOnUse" x1="1360" y1="815.118103" x2="1360" y2="1695.118164" gradientTransform="matrix(0.0248071,0,0,0.0248071,0,0)">
<stop offset="0" style="stop-color:rgb(48.627451%,70.196078%,25.882353%);stop-opacity:1;"/>
<stop offset="1" style="stop-color:rgb(54.509804%,76.470588%,29.019608%);stop-opacity:1;"/>
</linearGradient>
<linearGradient id="linear2" gradientUnits="userSpaceOnUse" x1="232.833328" y1="0.666668" x2="232.833328" y2="233.5" gradientTransform="matrix(0.093759,0,0,0.093759,0,20.158174)">
<stop offset="0" style="stop-color:rgb(61.176471%,80%,39.607843%);stop-opacity:1;"/>
<stop offset="1" style="stop-color:rgb(54.509804%,76.470588%,29.019608%);stop-opacity:1;"/>
</linearGradient>
<linearGradient id="linear3" gradientUnits="userSpaceOnUse" x1="960" y1="815.118103" x2="960" y2="175.118118" gradientTransform="matrix(0.0248071,0,0,0.0248071,0,0)">
<stop offset="0" style="stop-color:rgb(61.176471%,80%,39.607843%);stop-opacity:1;"/>
<stop offset="1" style="stop-color:rgb(54.509804%,76.470588%,29.019608%);stop-opacity:1;"/>
</linearGradient>
<linearGradient id="linear4" gradientUnits="userSpaceOnUse" x1="148.166672" y1="0.666667" x2="148.166672" y2="-168.666656" gradientTransform="matrix(0.093759,0,0,0.093759,0,20.158174)">
<stop offset="0" style="stop-color:rgb(68.235294%,83.529412%,50.588235%);stop-opacity:1;"/>
<stop offset="1" style="stop-color:rgb(77.254902%,88.235294%,64.705882%);stop-opacity:1;"/>
</linearGradient>
<linearGradient id="linear5" gradientUnits="userSpaceOnUse" x1="880" y1="175.118134" x2="880" y2="815.118103" gradientTransform="matrix(0.0248071,0,0,0.0248071,0,0)">
<stop offset="0" style="stop-color:rgb(61.176471%,80%,39.607843%);stop-opacity:1;"/>
<stop offset="1" style="stop-color:rgb(54.509804%,76.470588%,29.019608%);stop-opacity:1;"/>
</linearGradient>
</defs>
<g id="surface1">
<path style=" stroke:none;fill-rule:nonzero;fill:url(#radial0);" d="M 23.816406 42.105469 L 26.792969 42.105469 L 26.792969 40.121094 L 23.816406 40.121094 Z M 23.816406 42.105469 "/>
<path style=" stroke:none;fill-rule:nonzero;fill:url(#radial1);" d="M 23.816406 42.105469 L 20.839844 42.105469 L 20.839844 44.089844 L 23.816406 44.089844 Z M 23.816406 42.105469 "/>
<path style=" stroke:none;fill-rule:nonzero;fill:url(#radial2);" d="M 23.816406 42.105469 L 20.839844 42.105469 L 20.839844 40.121094 L 23.816406 40.121094 Z M 23.816406 42.105469 "/>
<path style=" stroke:none;fill-rule:nonzero;fill:url(#radial3);" d="M 23.816406 42.105469 L 26.792969 42.105469 L 26.792969 44.089844 L 23.816406 44.089844 Z M 23.816406 42.105469 "/>
<path style=" stroke:none;fill-rule:nonzero;fill:url(#linear0);" d="M 3.980469 20.21875 C 3.980469 20.695312 4.148438 21.167969 4.484375 21.542969 L 22.347656 41.386719 C 22.691406 41.769531 23.148438 41.984375 23.621094 42.03125 C 23.320312 41.972656 23.042969 41.78125 22.902344 41.449219 L 13.972656 20.613281 C 13.917969 20.480469 13.890625 20.351562 13.890625 20.21875 Z M 3.980469 20.21875 "/>
<path style=" stroke:none;fill-rule:nonzero;fill:url(#linear1);" d="M 33.738281 20.21875 C 33.738281 20.351562 33.710938 20.480469 33.65625 20.613281 L 24.726562 41.449219 C 24.585938 41.78125 24.308594 41.972656 24.007812 42.03125 C 24.480469 41.984375 24.9375 41.769531 25.28125 41.386719 L 43.144531 21.542969 C 43.480469 21.167969 43.652344 20.695312 43.652344 20.21875 Z M 33.738281 20.21875 "/>
<path style=" stroke:none;fill-rule:nonzero;fill:url(#linear2);" d="M 13.890625 20.21875 C 13.890625 20.351562 13.917969 20.480469 13.972656 20.613281 L 22.902344 41.449219 C 23.246094 42.25 24.382812 42.25 24.726562 41.449219 L 33.65625 20.613281 C 33.710938 20.480469 33.738281 20.351562 33.738281 20.21875 Z M 13.890625 20.21875 "/>
<path style=" stroke:none;fill-rule:nonzero;fill:url(#linear3);" d="M 23.945312 4.355469 C 24.242188 4.394531 24.507812 4.566406 24.664062 4.824219 L 33.597656 19.710938 C 33.695312 19.875 33.738281 20.050781 33.738281 20.21875 L 43.652344 20.21875 C 43.652344 19.820312 43.53125 19.417969 43.28125 19.074219 L 33.359375 5.179688 C 32.988281 4.660156 32.390625 4.355469 31.753906 4.355469 Z M 23.945312 4.355469 "/>
<path style=" stroke:none;fill-rule:nonzero;fill:url(#linear4);" d="M 15.867188 4.355469 C 15.230469 4.355469 14.628906 4.660156 14.257812 5.179688 L 4.335938 19.074219 C 4.089844 19.417969 3.96875 19.820312 3.96875 20.21875 L 13.890625 20.21875 C 13.890625 20.050781 13.933594 19.875 14.035156 19.710938 L 22.964844 4.824219 C 23.121094 4.566406 23.386719 4.394531 23.683594 4.355469 Z M 15.867188 4.355469 "/>
<path style=" stroke:none;fill-rule:nonzero;fill:url(#linear5);" d="M 23.84375 4.34375 C 23.484375 4.332031 23.148438 4.519531 22.964844 4.824219 L 14.035156 19.710938 C 13.933594 19.875 13.890625 20.050781 13.890625 20.21875 L 33.738281 20.21875 C 33.738281 20.050781 33.695312 19.875 33.597656 19.710938 L 24.664062 4.824219 C 24.492188 4.535156 24.183594 4.355469 23.84375 4.34375 Z M 23.84375 4.34375 "/>
<path style=" stroke:none;fill-rule:nonzero;fill:rgb(100%,100%,100%);fill-opacity:0.392157;" d="M 23.804688 4.34375 C 23.761719 4.34375 23.722656 4.347656 23.683594 4.355469 L 15.867188 4.355469 C 15.230469 4.355469 14.628906 4.660156 14.257812 5.179688 L 4.335938 19.074219 C 4.089844 19.417969 3.96875 19.820312 3.96875 20.21875 L 3.980469 20.21875 C 3.980469 20.296875 3.984375 20.375 3.992188 20.449219 C 4.046875 20.195312 4.15625 19.949219 4.3125 19.726562 L 14.238281 5.835938 C 14.609375 5.316406 15.207031 5.007812 15.84375 5.007812 L 23.660156 5.007812 C 23.714844 5 23.769531 4.996094 23.820312 5 C 23.855469 5 23.890625 5.003906 23.921875 5.007812 L 31.730469 5.007812 C 32.367188 5.007812 32.964844 5.316406 33.335938 5.835938 L 43.261719 19.726562 C 43.453125 19.996094 43.570312 20.300781 43.609375 20.613281 C 43.636719 20.484375 43.652344 20.351562 43.652344 20.21875 C 43.652344 19.820312 43.53125 19.417969 43.28125 19.074219 L 33.359375 5.179688 C 32.988281 4.660156 32.390625 4.355469 31.753906 4.355469 L 23.945312 4.355469 C 23.914062 4.347656 23.878906 4.347656 23.84375 4.34375 C 23.832031 4.34375 23.816406 4.34375 23.804688 4.34375 Z M 23.804688 4.34375 "/>
<path style=" stroke:none;fill-rule:nonzero;fill:rgb(0%,0%,0%);fill-opacity:0.235294;" d="M 4.003906 19.84375 C 3.980469 19.96875 3.96875 20.09375 3.96875 20.21875 L 3.980469 20.21875 C 3.980469 20.695312 4.148438 21.167969 4.484375 21.542969 L 22.347656 41.386719 C 22.691406 41.769531 23.148438 41.984375 23.621094 42.03125 C 23.75 42.054688 23.882812 42.054688 24.007812 42.03125 C 24.480469 41.984375 24.9375 41.769531 25.28125 41.386719 L 43.144531 21.542969 C 43.480469 21.167969 43.652344 20.695312 43.652344 20.21875 C 43.652344 20.105469 43.640625 19.988281 43.621094 19.875 C 43.558594 20.226562 43.398438 20.566406 43.144531 20.847656 L 25.28125 40.695312 C 24.9375 41.078125 24.480469 41.292969 24.007812 41.339844 C 23.882812 41.363281 23.75 41.363281 23.621094 41.339844 C 23.148438 41.292969 22.691406 41.078125 22.347656 40.695312 L 4.484375 20.847656 C 4.226562 20.558594 4.0625 20.207031 4.003906 19.84375 Z M 4.003906 19.84375 "/>
<path style=" stroke:none;fill-rule:nonzero;fill:rgb(12.941177%,12.941177%,12.941177%);fill-opacity:1;" d="M 15.867188 4.210938 C 15.183594 4.214844 14.542969 4.542969 14.144531 5.097656 L 4.222656 18.992188 C 3.957031 19.359375 3.828125 19.792969 3.828125 20.222656 C 3.828125 20.238281 3.832031 20.257812 3.839844 20.273438 C 3.851562 20.765625 4.035156 21.25 4.382812 21.636719 L 22.242188 41.480469 C 22.609375 41.886719 23.09375 42.117188 23.59375 42.167969 C 23.59375 42.171875 23.597656 42.171875 23.597656 42.171875 C 23.671875 42.183594 23.742188 42.191406 23.816406 42.191406 C 23.886719 42.191406 23.960938 42.183594 24.03125 42.171875 C 24.03125 42.171875 24.035156 42.171875 24.035156 42.167969 C 24.535156 42.117188 25.023438 41.886719 25.386719 41.480469 L 43.25 21.636719 C 43.609375 21.234375 43.792969 20.730469 43.792969 20.222656 C 43.792969 19.792969 43.660156 19.359375 43.398438 18.992188 L 33.476562 5.097656 C 33.078125 4.542969 32.4375 4.214844 31.753906 4.210938 L 23.945312 4.210938 C 23.886719 4.214844 23.835938 4.25 23.816406 4.304688 C 23.792969 4.25 23.742188 4.214844 23.683594 4.210938 Z M 23.816406 4.402344 C 23.832031 4.453125 23.875 4.484375 23.925781 4.492188 C 24.183594 4.527344 24.410156 4.675781 24.546875 4.898438 L 33.476562 19.78125 C 33.535156 19.878906 33.570312 19.980469 33.585938 20.078125 L 14.042969 20.078125 C 14.058594 19.980469 14.097656 19.878906 14.152344 19.78125 L 23.085938 4.898438 C 23.21875 4.675781 23.449219 4.527344 23.703125 4.492188 C 23.753906 4.484375 23.796875 4.453125 23.816406 4.402344 Z M 15.867188 4.496094 L 23.058594 4.496094 C 22.976562 4.570312 22.902344 4.65625 22.84375 4.753906 L 13.914062 19.636719 C 13.828125 19.78125 13.777344 19.929688 13.757812 20.078125 L 4.121094 20.078125 C 4.144531 19.753906 4.25 19.433594 4.449219 19.15625 L 14.375 5.261719 C 14.71875 4.78125 15.273438 4.496094 15.867188 4.496094 Z M 24.570312 4.496094 L 31.753906 4.496094 C 32.34375 4.496094 32.902344 4.78125 33.246094 5.261719 L 43.167969 19.15625 C 43.367188 19.433594 43.472656 19.753906 43.5 20.078125 L 33.871094 20.078125 C 33.851562 19.929688 33.800781 19.78125 33.714844 19.636719 L 24.785156 4.753906 C 24.726562 4.65625 24.652344 4.570312 24.570312 4.496094 Z M 4.125 20.359375 L 13.761719 20.359375 C 13.769531 20.449219 13.792969 20.539062 13.828125 20.625 C 13.832031 20.640625 13.835938 20.652344 13.84375 20.667969 L 22.773438 41.503906 C 22.789062 41.542969 22.808594 41.578125 22.824219 41.609375 C 22.691406 41.523438 22.5625 41.417969 22.453125 41.292969 L 4.589844 21.449219 C 4.3125 21.136719 4.15625 20.753906 4.125 20.359375 Z M 14.046875 20.359375 L 33.582031 20.359375 C 33.574219 20.425781 33.554688 20.492188 33.527344 20.554688 L 24.597656 41.394531 C 24.589844 41.410156 24.582031 41.425781 24.574219 41.441406 C 24.574219 41.445312 24.574219 41.445312 24.570312 41.449219 C 24.5625 41.464844 24.554688 41.480469 24.546875 41.492188 C 24.546875 41.496094 24.542969 41.5 24.542969 41.5 C 24.535156 41.515625 24.527344 41.527344 24.515625 41.542969 C 24.507812 41.558594 24.496094 41.570312 24.488281 41.582031 C 24.484375 41.585938 24.484375 41.585938 24.484375 41.589844 C 24.472656 41.601562 24.464844 41.613281 24.453125 41.625 C 24.445312 41.636719 24.433594 41.648438 24.425781 41.65625 C 24.414062 41.667969 24.402344 41.679688 24.390625 41.6875 C 24.386719 41.695312 24.382812 41.699219 24.375 41.703125 C 24.367188 41.710938 24.355469 41.71875 24.347656 41.730469 C 24.34375 41.730469 24.339844 41.734375 24.335938 41.734375 C 24.324219 41.746094 24.3125 41.753906 24.300781 41.761719 C 24.203125 41.828125 24.09375 41.871094 23.980469 41.894531 C 23.980469 41.894531 23.976562 41.894531 23.976562 41.894531 C 23.921875 41.90625 23.867188 41.910156 23.816406 41.910156 C 23.761719 41.910156 23.707031 41.90625 23.65625 41.894531 C 23.652344 41.894531 23.648438 41.894531 23.648438 41.894531 C 23.535156 41.871094 23.425781 41.828125 23.328125 41.761719 C 23.316406 41.753906 23.304688 41.746094 23.292969 41.734375 C 23.289062 41.734375 23.289062 41.730469 23.285156 41.730469 C 23.273438 41.71875 23.261719 41.710938 23.25 41.703125 C 23.25 41.699219 23.246094 41.695312 23.242188 41.691406 C 23.230469 41.679688 23.214844 41.667969 23.203125 41.65625 C 23.195312 41.644531 23.183594 41.636719 23.175781 41.625 C 23.164062 41.613281 23.15625 41.601562 23.144531 41.589844 C 23.144531 41.585938 23.144531 41.585938 23.140625 41.585938 C 23.132812 41.570312 23.121094 41.558594 23.113281 41.542969 C 23.101562 41.527344 23.09375 41.515625 23.085938 41.5 C 23.085938 41.496094 23.082031 41.496094 23.082031 41.492188 C 23.074219 41.480469 23.066406 41.464844 23.058594 41.449219 C 23.058594 41.445312 23.054688 41.445312 23.054688 41.441406 C 23.046875 41.425781 23.039062 41.410156 23.03125 41.394531 L 14.101562 20.554688 C 14.074219 20.492188 14.058594 20.425781 14.046875 20.359375 Z M 33.871094 20.359375 L 43.503906 20.359375 C 43.472656 20.753906 43.320312 21.136719 43.039062 21.449219 L 25.179688 41.292969 C 25.066406 41.417969 24.9375 41.523438 24.804688 41.609375 C 24.824219 41.578125 24.839844 41.542969 24.855469 41.503906 L 33.785156 20.667969 C 33.792969 20.652344 33.796875 20.640625 33.800781 20.625 C 33.835938 20.539062 33.859375 20.449219 33.871094 20.359375 Z M 33.871094 20.359375 "/>
</g>
</svg>
